X: 1432
T: Flying Pieman
B: australian traditional tunes wiki
M:6/8
L:1/8
R: Jig
Q: 3/8=100
K:D
V:1 
A|"D"def d2B|A2AF2E|D2AA2A|"A7"Acd e2A|
"D"def d2B|A2AF2E|D2AA2A|"A7"ABc "D"d2::!
e|"D"f2a afd|"G"g2b baf|"D"f2aa2f|"A7"f2ee2e|
"D"f2a afd|"G"g2b baf|"D"fgf "A7"edc|"D"d3d2:||
% abcbook-tune_id 6342d53a4270d218c7464147


% abcbook-boost 0
% abcbook-tablature 
% abcbook-transpose 
% abcbook-lastupdated 1665324364821
% abcbook-soundfonts 
% abcbook-repeats 1


